;Generated by Cura LulzBot Edition GCodeWriter Version: 3.6.3
;FLAVOR:Marlin
;TIME:2033
;Filament used: 0.796086m
;Layer height: 0.25
;Generated with Cura_SteamEngine 3.6.3
M82 ;absolute extrusion mode
M221 S100
;This G-Code has been generated specifically for the LulzBot TAZ 6 with standard extruder
M73 P0 ; clear GLCD progress bar
M75 ; start GLCD timer
G26 ; clear potential 'probe fail' condition
M107 ; disable fans
M420 S0 ; disable previous leveling matrix
G90 ; absolute positioning
M82 ; set extruder to absolute mode
G92 E0 ; set extruder position to 0
M140 S40 ; start bed heating up
M109 R195 ; soften filament before homing Z
G28 ; Home all axis
G1 E-30 F100 ; retract filament
M109 R195 ; wait for extruder to reach wiping temp
G1 X-15 Y100 F3000 ; move above wiper pad
G1 Z1 ; push nozzle into wiper
G1 X-17 Y95 F1000 ; slow wipe
G1 X-17 Y90 F1000 ; slow wipe
G1 X-17 Y85 F1000 ; slow wipe
G1 X-15 Y90 F1000 ; slow wipe
G1 X-17 Y80 F1000 ; slow wipe
G1 X-15 Y95 F1000 ; slow wipe
G1 X-17 Y75 F2000 ; fast wipe
G1 X-15 Y65 F2000 ; fast wipe
G1 X-17 Y70 F2000 ; fast wipe
G1 X-15 Y60 F2000 ; fast wipe
G1 X-17 Y55 F2000 ; fast wipe
G1 X-15 Y50 F2000 ; fast wipe
G1 X-17 Y40 F2000 ; fast wipe
G1 X-15 Y45 F2000 ; fast wipe
G1 X-17 Y35 F2000 ; fast wipe
G1 X-15 Y40 F2000 ; fast wipe
G1 X-17 Y70 F2000 ; fast wipe
G1 X-15 Y30 Z2 F2000 ; fast wipe
G1 X-17 Y35 F2000 ; fast wipe
G1 X-15 Y25 F2000 ; fast wipe
G1 X-17 Y30 F2000 ; fast wipe
G1 X-15 Y25 Z1.5 F1000 ; slow wipe
G1 X-17 Y23 F1000 ; slow wipe
G1 Z10 ; raise extruder
M109 R195 ; wait for extruder to reach probe temp
G1 X-9 Y-9 ; move above first probe point
M204 S100 ; set probing acceleration
G29 ; start auto-leveling sequence
M420 S1 ; activate bed level matrix
M425 Z			     ; use measured Z backlash for compensation
M425 Z F0		     ; turn off measured Z backlash compensation. (if activated in the quality settings, this command will automatically be ignored)
M204 S500 ; restore standard acceleration
G1 X0 Y0 Z15 F5000 ; move up off last probe point
G4 S1 ; pause
M400 ; wait for moves to finish
M117 Heating... ; progress indicator message on LCD
M109 R245 ; wait for extruder to reach printing temp
M190 S40 ; wait for bed to reach printing temp
G1 Z2 E0 F75 ; prime tiny bit of filament into the nozzle
M117 TAZ 6 Printing... ; progress indicator message on LCD

G92 E0
G1 F1200 E-2
;LAYER_COUNT:74
;LAYER:0
M107
G0 F2625 X129.145 Y103.798 Z0.425
;TYPE:SKIRT
G1 F1200 E0
G1 F900 X129.675 Y103.222 E0.02607
G1 X130.86 Y102.179 E0.07866
G1 X131.327 Y101.829 E0.0981
G1 X131.955 Y101.43 E0.12288
G1 X132.48 Y101.152 E0.14267
G1 X133.11 Y100.88 E0.16553
G1 X133.716 Y100.678 E0.18681
G1 X134.752 Y100.428 E0.22231
G1 X135.332 Y100.335 E0.24187
G1 X136.29 Y100.258 E0.27389
G1 X136.949 Y100.263 E0.29584
G1 X138.029 Y100.367 E0.33198
G1 X138.691 Y100.492 E0.35442
G1 X139.61 Y100.752 E0.38624
G1 X139.969 Y100.873 E0.39886
G1 X142.831 Y102.005 E0.50138
G1 X148.01 Y103.813 E0.6841
G1 X153.276 Y105.323 E0.86658
G1 X155.901 Y105.957 E0.95654
G1 X160.601 Y106.91 E1.11628
G1 X160.918 Y106.988 E1.12715
G1 X161.636 Y107.2 E1.15209
G1 X162.162 Y107.4 E1.17084
G1 X163.195 Y107.883 E1.20882
G1 X163.673 Y108.15 E1.22706
G1 X163.998 Y108.391 E1.24054
G1 X165.105 Y109.307 E1.2884
G1 X165.5 Y109.686 E1.30663
G1 X165.759 Y110.008 E1.3204
G1 X166.561 Y111.124 E1.36618
G1 X166.847 Y111.59 E1.38439
G1 X166.992 Y111.904 E1.39591
G1 X170.201 Y119.825 E1.68059
G1 X172.562 Y124.734 E1.86204
G1 X175.188 Y129.488 E2.04295
G1 X178.62 Y135.047 E2.26057
G1 X178.962 Y135.761 E2.28694
G1 X179.314 Y136.751 E2.32194
G1 X179.486 Y137.427 E2.34518
G1 X179.634 Y138.372 E2.37704
G1 X179.679 Y138.927 E2.39559
G1 X179.685 Y139.816 E2.4252
G1 X179.636 Y140.445 E2.44622
G1 X179.453 Y141.567 E2.48409
G1 X179.321 Y142.113 E2.5028
G1 X179.127 Y142.715 E2.52387
G1 X178.891 Y143.285 E2.54442
G1 X175.337 Y150.173 E2.8026
G1 X174.219 Y152.585 E2.89115
G1 X172.118 Y157.671 E3.07446
G1 X170.825 Y161.084 E3.19603
G1 X170.478 Y161.774 E3.22176
G1 X169.891 Y162.693 E3.25808
G1 X169.404 Y163.304 E3.28411
G1 X168.613 Y164.108 E3.32168
G1 X168.202 Y164.469 E3.3399
G1 X167.813 Y164.727 E3.35545
G1 X162.538 Y167.767 E3.55825
G1 X157.946 Y170.702 E3.73979
G1 X153.516 Y173.899 E3.92177
G1 X148.829 Y177.712 E4.12303
G1 X148.576 Y177.901 E4.13355
G1 X147.828 Y178.411 E4.16371
G1 X147.218 Y178.748 E4.18692
G1 X146.16 Y179.211 E4.22539
G1 X145.517 Y179.426 E4.24797
G1 X144.842 Y179.585 E4.27107
G1 X144.169 Y179.68 E4.29371
G1 X143.25 Y179.726 E4.32436
G1 X142.501 Y179.689 E4.34934
G1 X141.242 Y179.498 E4.39176
G1 X140.518 Y179.313 E4.41665
G1 X139.655 Y178.998 E4.44726
G1 X139.239 Y178.816 E4.46238
G1 X132.803 Y175.538 E4.70297
G1 X127.832 Y173.385 E4.88342
G1 X122.69 Y171.498 E5.06587
G1 X117.384 Y169.83 E5.25114
G1 X116.639 Y169.503 E5.27825
G1 X115.565 Y168.885 E5.31952
G1 X115.126 Y168.59 E5.33714
G1 X114.403 Y168.025 E5.3677
G1 X113.984 Y167.643 E5.38659
G1 X113.335 Y166.955 E5.4181
G1 X112.99 Y166.531 E5.4363
G1 X112.831 Y166.284 E5.44609
G1 X111.179 Y163.477 E5.55458
G1 X108.267 Y158.843 E5.73689
G1 X105.09 Y154.368 E5.9197
G1 X101.748 Y150.053 E6.1015
G1 X101.446 Y149.597 E6.11972
G1 X101.299 Y149.309 E6.13049
G1 X100.983 Y148.614 E6.15592
G1 X100.761 Y147.981 E6.17827
G1 X100.486 Y146.893 E6.21565
G1 X100.391 Y146.351 E6.23398
G1 X100.332 Y145.767 E6.25353
G1 X100.319 Y145.178 E6.27316
G1 X100.38 Y144.102 E6.30906
G1 X100.507 Y143.323 E6.33535
G1 X100.785 Y142.308 E6.3704
G1 X101.011 Y141.697 E6.3921
G1 X101.491 Y140.681 E6.42953
G1 X101.895 Y140.016 E6.45545
G1 X102.787 Y138.841 E6.50459
G1 X103.242 Y138.342 E6.52709
G1 X106.794 Y135.09 E6.6875
G1 X110.674 Y131.209 E6.87031
G1 X112.488 Y129.231 E6.95971
G1 X115.997 Y125.067 E7.14109
G1 X119.275 Y120.698 E7.32303
G1 X122.291 Y116.168 E7.50431
G1 X125.063 Y111.442 E7.68682
G1 X126.318 Y109.077 E7.776
G1 X128.385 Y104.919 E7.93068
G1 X128.735 Y104.349 E7.95296
G1 X129.145 Y103.798 E7.97584
G0 F2625 X129.546 Y104.097
G1 F900 X130.006 Y103.597 E7.99847
G1 X131.191 Y102.554 E8.05105
G1 X131.595 Y102.251 E8.06788
G1 X132.223 Y101.852 E8.09266
G1 X132.678 Y101.611 E8.10981
G1 X133.308 Y101.339 E8.13267
G1 X133.834 Y101.164 E8.15113
G1 X134.87 Y100.914 E8.18663
G1 X135.372 Y100.833 E8.20357
G1 X136.33 Y100.756 E8.23559
G1 X136.902 Y100.761 E8.25464
G1 X137.982 Y100.865 E8.29078
G1 X138.555 Y100.973 E8.31021
G1 X139.474 Y101.233 E8.34202
G1 X139.785 Y101.338 E8.35295
G1 X142.676 Y102.482 E8.45652
G1 X147.85 Y104.287 E8.63905
G1 X153.142 Y105.805 E8.82244
G1 X155.786 Y106.444 E8.91305
G1 X160.502 Y107.4 E9.07334
G1 X160.776 Y107.468 E9.08274
G1 X161.494 Y107.68 E9.10768
G1 X161.951 Y107.853 E9.12395
G1 X162.984 Y108.336 E9.16194
G1 X163.427 Y108.587 E9.1789
G1 X163.679 Y108.776 E9.18939
G1 X164.786 Y109.692 E9.23725
G1 X165.152 Y110.047 E9.25424
G1 X165.353 Y110.299 E9.26498
G1 X166.155 Y111.415 E9.31075
G1 X166.419 Y111.851 E9.32773
G1 X166.528 Y112.092 E9.33654
G1 X169.742 Y120.025 E9.62166
G1 X172.106 Y124.941 E9.80336
G1 X174.773 Y129.768 E9.98706
G1 X178.194 Y135.31 E10.20401
G1 X178.491 Y135.928 E10.22684
G1 X178.843 Y136.918 E10.26184
G1 X178.992 Y137.504 E10.28199
G1 X179.14 Y138.449 E10.31385
G1 X179.179 Y138.93 E10.32992
G1 X179.185 Y139.819 E10.35954
G1 X179.143 Y140.364 E10.37774
G1 X178.96 Y141.486 E10.41561
G1 X178.845 Y141.96 E10.43186
G1 X178.651 Y142.562 E10.45293
G1 X178.446 Y143.055 E10.47071
G1 X174.904 Y149.919 E10.728
G1 X173.759 Y152.389 E10.81869
G1 X171.643 Y157.513 E11.00335
G1 X170.357 Y160.907 E11.12425
G1 X170.057 Y161.504 E11.14651
G1 X169.47 Y162.423 E11.18283
G1 X169.048 Y162.953 E11.2054
G1 X168.257 Y163.757 E11.24297
G1 X167.872 Y164.091 E11.25995
G1 X167.563 Y164.294 E11.27226
G1 X162.269 Y167.345 E11.4758
G1 X157.661 Y170.29 E11.65796
G1 X153.225 Y173.492 E11.8402
G1 X148.514 Y177.324 E12.04248
G1 X148.294 Y177.488 E12.05162
G1 X147.546 Y177.998 E12.08178
G1 X147.018 Y178.29 E12.10188
G1 X145.96 Y178.753 E12.14035
G1 X145.402 Y178.939 E12.15994
G1 X144.727 Y179.098 E12.18304
G1 X144.144 Y179.181 E12.20266
G1 X143.225 Y179.227 E12.23331
G1 X142.576 Y179.194 E12.25495
G1 X141.317 Y179.003 E12.29737
G1 X140.69 Y178.843 E12.31892
G1 X139.827 Y178.528 E12.34953
G1 X139.466 Y178.371 E12.36264
G1 X133.019 Y175.087 E12.60365
G1 X128.014 Y172.92 E12.78532
G1 X122.842 Y171.022 E12.96884
G1 X117.534 Y169.353 E13.15418
G1 X116.888 Y169.07 E13.17768
G1 X115.814 Y168.452 E13.21895
G1 X115.434 Y168.196 E13.23421
G1 X114.711 Y167.631 E13.26478
G1 X114.348 Y167.3 E13.28114
G1 X113.699 Y166.612 E13.31265
G1 X113.262 Y166.03 E13.33689
G1 X111.617 Y163.235 E13.44492
G1 X108.68 Y158.56 E13.62883
G1 X105.485 Y154.061 E13.81264
G1 X102.144 Y149.747 E13.99439
G1 X101.754 Y149.102 E14.0195
G1 X101.438 Y148.407 E14.04493
G1 X101.246 Y147.858 E14.06431
G1 X100.971 Y146.77 E14.10169
G1 X100.888 Y146.301 E14.11755
G1 X100.829 Y145.717 E14.1371
G1 X100.818 Y145.206 E14.15413
G1 X100.879 Y144.13 E14.19003
G1 X100.989 Y143.455 E14.21281
G1 X101.267 Y142.44 E14.24787
G1 X101.463 Y141.911 E14.26666
G1 X101.943 Y140.895 E14.30409
G1 X102.293 Y140.318 E14.32657
G1 X103.185 Y139.143 E14.37571
G1 X103.579 Y138.711 E14.39518
G1 X107.142 Y135.449 E14.5561
G1 X111.043 Y131.547 E14.73989
G1 X112.862 Y129.564 E14.82952
G1 X116.393 Y125.374 E15.01204
G1 X119.684 Y120.987 E15.19473
G1 X122.715 Y116.434 E15.37692
G1 X125.484 Y111.714 E15.5592
G1 X126.776 Y109.281 E15.65097
G1 X128.833 Y105.141 E15.80496
G1 X129.136 Y104.648 E15.82423
G1 X129.546 Y104.097 E15.84711
G1 F1200 E13.84711
;MESH:
G0 F2625 X131.036 Y106.454
G0 X132.25 Y107.216
G0 X132.526 Y113.44
G0 X140.15 Y118.894
G0 X141.016 Y119.745
G0 X141.174 Y120.03
G0 X148.432 Y133.78
G0 X148.528 Y133.754
;TYPE:WALL-INNER
G1 F1200 E15.84711
G1 F900 X148.781 Y133.878 E15.85649
G1 X149.452 Y134.207 E15.88139
G1 X149.596 Y134.291 E15.88694
G1 X149.722 Y134.345 E15.89151
G1 X149.87 Y134.446 E15.89748
G1 X150.195 Y134.583 E15.90922
G1 X150.442 Y134.642 E15.91768
G1 X151.367 Y134.664 E15.9485
G1 X151.601 Y134.692 E15.95635
G1 X151.856 Y134.734 E15.96496
G1 X152.171 Y134.798 E15.97567
G1 X153.383 Y134.981 E16.0165
G1 X154.279 Y135.137 E16.04679
G1 X154.829 Y135.255 E16.06553
G1 X155.399 Y135.395 E16.08508
G1 X155.922 Y135.548 E16.10323
G1 X156.501 Y135.738 E16.12353
G1 X157.684 Y136.156 E16.16533
G1 X158.278 Y136.38 E16.18647
G1 X158.916 Y136.64 E16.20942
G1 X159.475 Y136.897 E16.22992
G1 X159.982 Y137.163 E16.24899
G1 X160.483 Y137.469 E16.26854
G1 X161.021 Y137.833 E16.29018
G1 X161.567 Y138.241 E16.31289
G1 X161.963 Y138.571 E16.33006
G1 X162.306 Y138.908 E16.34607
G1 X162.637 Y139.284 E16.36276
G1 X162.998 Y139.715 E16.38149
G1 X163.375 Y140.124 E16.40002
G1 X163.762 Y140.517 E16.41839
G1 X164.168 Y140.893 E16.43682
G1 X164.574 Y141.256 E16.45496
G1 X165.376 Y141.933 E16.48992
G1 X165.806 Y142.281 E16.50835
G1 X166.26 Y142.622 E16.52726
G1 X166.712 Y142.892 E16.5448
G1 X167.53 Y143.309 E16.57539
G1 X167.957 Y143.495 E16.5909
G1 X168.376 Y143.629 E16.60555
G1 X168.795 Y143.721 E16.61984
G1 X169.253 Y143.79 E16.63527
G1 X169.729 Y143.835 E16.6512
G1 X170.17 Y143.833 E16.66589
G1 X170.604 Y143.794 E16.6804
G1 X171.08 Y143.723 E16.69643
G1 X171.592 Y143.62 E16.71383
G1 X172.099 Y143.478 E16.73137
G1 X172.21 Y143.44 E16.73528
G1 X172.582 Y143.314 E16.74836
G1 X172.677 Y143.275 E16.75178
G1 X173.03 Y143.128 E16.76452
G1 X173.047 Y143.119 E16.76516
G1 X173.455 Y142.902 E16.78055
G1 X173.847 Y142.611 E16.79681
G1 X174.2 Y142.231 E16.81409
G1 X174.211 Y142.214 E16.81477
G1 X174.496 Y141.759 E16.83265
G1 X174.501 Y141.748 E16.83305
G1 X174.736 Y141.263 E16.851
G1 X174.918 Y140.773 E16.86842
G1 X174.925 Y140.756 E16.86903
G1 X175.054 Y140.284 E16.88533
G1 X175.066 Y140.242 E16.88678
G1 X175.142 Y139.763 E16.90294
G1 X175.147 Y139.737 E16.90382
G1 X175.179 Y139.253 E16.91998
G1 X175.179 Y139.217 E16.92118
G1 X175.172 Y138.798 E16.93513
G1 X175.205 Y139.216 E16.93551
G1 X175.205 Y139.253
G1 X175.197 Y139.737 E16.9368
G1 X175.196 Y139.772
G1 X175.141 Y140.251 E16.93884
G1 X175.134 Y140.307
G1 X175.033 Y140.779 E16.94185
G1 X175.026 Y140.812
G1 X174.865 Y141.305 E16.94609
G1 X174.86 Y141.319 E16.94641
G1 X174.648 Y141.818 E16.95184
G1 X174.637 Y141.838 E16.9522
G1 X174.366 Y142.31 E16.9585
G1 X174.343 Y142.34 E16.95913
G1 X174.026 Y142.749 E16.96631
G1 X174.005 Y142.776 E16.96714
G1 X173.672 Y143.114 E16.97545
G1 X173.609 Y143.178 E16.97787
G1 X173.272 Y143.439 E16.98775
G1 X173.234 Y143.468 E16.9891
G1 X172.851 Y143.691 E17.00175
G1 X172.777 Y143.726 E17.00418
G1 X172.421 Y143.894 E17.01671
G1 X172.392 Y143.908 E17.01778
G1 X171.904 Y144.096 E17.0352
G1 X171.386 Y144.267 E17.05337
G1 X170.835 Y144.411 E17.07234
G1 X170.311 Y144.512 E17.09012
G1 X169.831 Y144.561 E17.10619
G1 X169.383 Y144.555 E17.12111
G1 X168.917 Y144.507 E17.13672
G1 X168.406 Y144.434 E17.15391
G1 X167.91 Y144.323 E17.17084
G1 X167.423 Y144.162 E17.18793
G1 X166.936 Y143.962 E17.20547
G1 X166.401 Y143.726 E17.22494
G1 X165.89 Y143.482 E17.24381
G1 X165.394 Y143.233 E17.26229
G1 X164.936 Y142.977 E17.27977
G1 X164.478 Y142.69 E17.29777
G1 X164.01 Y142.366 E17.31673
G1 X163.16 Y141.724 E17.35222
G1 X162.294 Y141.101 E17.38775
G1 X160.955 Y140.156 E17.44235
G1 X160.518 Y139.862 E17.45989
G1 X160.069 Y139.603 E17.47716
G1 X159.615 Y139.366 E17.49422
G1 X159.118 Y139.128 E17.51257
G1 X158.579 Y138.901 E17.53205
G1 X158.031 Y138.727 E17.5512
G1 X156.502 Y138.311 E17.60399
G1 X155.984 Y138.192 E17.62169
G1 X155.45 Y138.092 E17.63979
G1 X154.89 Y138.02 E17.6586
G1 X154.336 Y137.966 E17.67714
G1 X153.795 Y137.926 E17.69521
G1 X153.253 Y137.9 E17.71328
G1 X152.699 Y137.894 E17.73174
G1 X151.904 Y137.909 E17.75822
G1 X151.431 Y137.948 E17.77403
G1 X150.851 Y137.964 E17.79336
G1 X150.719 Y137.991 E17.79785
G1 X150.524 Y138.01 E17.80437
G1 X150.255 Y138.131 E17.8142
G1 X150.021 Y138.321 E17.82424
G1 X149.899 Y138.476 E17.83081
G1 X149.777 Y138.597 E17.83653
G1 X149.596 Y138.823 E17.84618
G1 X149.364 Y139.091 E17.85799
G1 X149.078 Y139.517 E17.87508
G1 X149.474 Y140.593 E17.91327
G1 X149.59 Y140.784 E17.92071
G1 X149.634 Y140.84 E17.92309
G1 X149.737 Y141.063 E17.93127
G1 X149.975 Y141.364 E17.94405
G1 X150.243 Y141.567 E17.95525
G1 X150.458 Y141.635 E17.96276
G1 X150.631 Y141.711 E17.96906
G1 X151.689 Y141.909 E18.00491
G1 X152.417 Y142.087 E18.02987
G1 X153.238 Y142.333 E18.05842
G1 X154.157 Y142.653 E18.09084
G1 X155.025 Y142.989 E18.12184
G1 X155.856 Y143.393 E18.15262
G1 X156.607 Y143.876 E18.18236
G1 X157.321 Y144.462 E18.21313
G1 X158.038 Y145.17 E18.2467
G1 X158.685 Y145.933 E18.28002
G1 X159.18 Y146.636 E18.30866
G1 X159.516 Y147.323 E18.33414
G1 X159.69 Y148.044 E18.35884
G1 X159.759 Y148.8 E18.38413
G1 X159.77 Y149.493 E18.40722
G1 X159.73 Y150.107 E18.42771
G1 X159.655 Y150.734 E18.44875
G1 X159.336 Y152.785 E18.51789
G1 X159.134 Y154.193 E18.56527
G1 X158.906 Y155.611 E18.61311
G1 X158.742 Y156.732 E18.65085
G1 X158.68 Y157.268 E18.66882
G1 X158.639 Y157.758 E18.6852
G1 X158.639 Y158.168 E18.69886
G1 X158.684 Y158.534 E18.71114
G1 X158.78 Y158.892 E18.72349
G1 X158.933 Y159.245 E18.7363
G1 X159.141 Y159.538 E18.74827
G1 X159.543 Y159.983 E18.76825
G1 X159.814 Y160.243 E18.78076
G1 X160.132 Y160.487 E18.79411
G1 X160.466 Y160.708 E18.80745
G1 X160.815 Y160.905 E18.8208
G1 X161.188 Y161.084 E18.83458
G1 X161.592 Y161.236 E18.84896
G1 X162.018 Y161.356 E18.8637
G1 X162.454 Y161.431 E18.87844
G1 X162.624 Y161.448 E18.88413
G1 X162.876 Y161.472 E18.89256
G1 X162.9 Y161.472 E18.89336
G1 X163.289 Y161.478 E18.90632
G1 X163.334 Y161.475 E18.90782
G1 X163.717 Y161.446 E18.92062
G1 X163.772 Y161.435 E18.92249
G1 X164.158 Y161.357 E18.9356
G1 X164.58 Y161.228 E18.9503
G1 X164.969 Y161.06 E18.96442
G1 X164.981 Y161.053 E18.96488
G1 X165.342 Y160.844 E18.97877
G1 X165.351 Y160.837 E18.97915
G1 X165.69 Y160.571 E18.99351
G1 X165.704 Y160.558 E18.99414
G1 X166.007 Y160.27 E19.00807
G1 X166.019 Y160.256 E19.00868
G1 X166.29 Y159.94 E19.02255
G1 X166.327 Y159.888 E19.02468
G1 X166.548 Y159.576 E19.03741
G1 X166.584 Y159.51 E19.03992
G1 X166.772 Y159.171 E19.05283
G1 X166.807 Y159.092 E19.05571
